src/images/patterns/patt_3.svg

<svg width="201" height="4"><path d="M1 0H0v4h1V0zm4 0H4v4h1V0zm3 0h1v4H8V0zm27 0h-1v4h1V0zm86 0h1v4h-1V0zm-3 0h-1v4h1V0zm82 4h1V0h-1v4zm-98 0h-1V0h1v4z" fill="current-color"/></svg>

<svg width="201" height="4" viewBox="0 0 201 4" fill="none" xmlns="http://www.w3.org/2000/svg">
<path fill-rule="evenodd" clip-rule="evenodd" d="M1 0H0V4H1V0ZM5 0H4V4H5V0ZM8 0H9V4H8V0ZM35 0H34V4H35V0ZM121 0H122V4H121V0ZM118 0H117V4H118V0ZM200 4H201V0H200V4ZM102 4H101V0H102V4Z" fill="white"/>
</svg>
